!!!OTL: Die dienende Schwester Es war ein Markgraf uebern Rhein,
!!!ARE: Europa, Mitteleuropa, Deutschland
!!!YOR: 4, S. 120
!!    1886 gedruckt in Leipzig
!!!SCT: Q00752
!!!YEM: Copyright 1995, estate of Helmut Schaffrath.
**kern
*ICvox
*Ivox
*M3/4
*k[b-e-a-d-]
*f:
{8c
8c
8c
=1
4.f
8a-
8g
8f
=2
4e
8r}
{8g
8a-
8b-
=3
4.cc
8b-
8a-
8g
=4
4f
8r}
{8c
8c
8c
=5
4.f
8a-
8g
8f
=6
4e
8r}
{8g
8a-
8b-
=7
4.cc
8b-
8a-
8g
=8
4f
8r}
{8cc
8cc
8cc
=9
4.cc
8g
8a-
8f
=10
4g
8r}
{8c
8f
8a-
=11
4.g
8b-
8a-
8g
=12
4f
8r}
==
!!!AGN: Ballade, Adelige als Dienstmagd, Tod; Kinder - Spiel, Tanz
!!!ONB: ESAC (Essen Associative Code) Database: BALLADE
!!!AMT: simple triple
!!!AIN: vox
!!!EED: Helmut Schaffrath
!!!EEV: 1.0
*-
